X:1
T:Flute Solo in D Minor
T:E. Peterson
T:CC0
T:CC0
T:CC0
Z:CC0
L:1/8
Q:1/4=96
M:4/4
K:F
V:1 treble nm="Flute" snm="Fl."
V:1
!p!"^Andante" D2 E2 F2 A2 | PG2 F2 E2 DC |!<(! D A2 A G c2 c!<)! |!mf! d8 |!>(!{/e} d(c A6)!>)! :| %5
!p! G A2 c2 A2 E | A2 ^G A4- A |!<(! B3 c dBce!<)! |!mf! f F2 c f4 | e G2 c e4 |!>(! d4 d4!>)! | %11
 d4 ^c4 |!pp! d8 |: D3 E FEFA | GFEG FEDF |!<(! EA^GA GAGA!<)! | =GAGA FAFA | %17
!mf! EAaA !trill(!TA4 :| D3 E F>E F/D/E/F/ | G C2 G A F2 A | %20
!>(! c>d c/d/c/d/ B/c/A/B/ G/A/F/G/!>)! | A/F/G/A/ G/E/F/G/ F/D/E/F/ G/E/F/G/ | %22
!p! E/F/E/C/ D/E/F/A/ d/e/f/a/ d'2 | d2 D2 E2 (F/4E/4)D3/2 | (G/4F/4)E3/2 (A/4G/4)F3/2 G4 | G4 E4 | %26
 D8 | z4 z2 D2 | E2 F2 G2 A2 | A4 c4 | A4 D4 | d4 e2 ce | ^f8 | =f4 f3 A | dcBA cBAG | BAGF AGFE | %36
 DAEA FdBf | e/g/f/e/ d/f/e/d/ c/e/d/c/ B/d/c/B/ | d/B/c/e/ d/c/B/G/ F/D/E/F/ D2 | D2 A2 G2 A2 | %40
 D2 PA2 G2 A2 | B2 G2 A2 F2 | D8 |] %43

